svg/blobs-icons/no-decorations/table.svg

<svg xmlns="http://www.w3.org/2000/svg" xmlns:xlink="http://www.w3.org/1999/xlink" preserveAspectRatio="xMidYMid" width="216" height="139" viewBox="0 0 216 139"><defs><style>.cls-3{fill:#ff3a2f}.cls-6{fill:#000;opacity:.35}</style></defs><g id="group-64svg"><path d="M204.708 136.148S198.058 138.489 198.058 138.489 155.605 17.912 155.605 17.912s6.648-2.342 6.648-2.342 42.455 120.578 42.455 120.578z" id="path-1" class="cls-3" fill-rule="evenodd"/><path d="M14.61 136.148S21.259 138.489 21.259 138.489 63.713 17.912 63.713 17.912s-6.649-2.342-6.649-2.342S14.61 136.148 14.61 136.148z" id="path-2" class="cls-3" fill-rule="evenodd"/><path d="M215.543 19.843s-215.54.0-215.54.0.0-19.856.0-19.856 215.54.0 215.54.0.0 19.856.0 19.856z" id="path-3" class="cls-3" fill-rule="evenodd"/><path d="M215.543 19.843s-215.54.0-215.54.0.0-10.225.0-10.225 215.54.0 215.54.0.0 10.225.0 10.225z" id="path-4" class="cls-6" fill-rule="evenodd"/></g></svg>

<svg xmlns="http://www.w3.org/2000/svg" xmlns:xlink="http://www.w3.org/1999/xlink" preserveAspectRatio="xMidYMid" width="216" height="139" viewBox="0 0 216 139">
  <defs>
    <style>

      .cls-3 {
        fill: #ff3a2f;
      }

      .cls-6 {
        fill: #000000;
        opacity: 0.35;
      }
    </style>
  </defs>
  <g id="group-64svg">
    <path d="M204.708,136.148 C204.708,136.148 198.058,138.489 198.058,138.489 C198.058,138.489 155.605,17.912 155.605,17.912 C155.605,17.912 162.253,15.570 162.253,15.570 C162.253,15.570 204.708,136.148 204.708,136.148 Z" id="path-1" class="cls-3" fill-rule="evenodd"/>
    <path d="M14.610,136.148 C14.610,136.148 21.259,138.489 21.259,138.489 C21.259,138.489 63.713,17.912 63.713,17.912 C63.713,17.912 57.064,15.570 57.064,15.570 C57.064,15.570 14.610,136.148 14.610,136.148 Z" id="path-2" class="cls-3" fill-rule="evenodd"/>
    <path d="M215.543,19.843 C215.543,19.843 0.003,19.843 0.003,19.843 C0.003,19.843 0.003,-0.013 0.003,-0.013 C0.003,-0.013 215.543,-0.013 215.543,-0.013 C215.543,-0.013 215.543,19.843 215.543,19.843 Z" id="path-3" class="cls-3" fill-rule="evenodd"/>
    <path d="M215.543,19.843 C215.543,19.843 0.003,19.843 0.003,19.843 C0.003,19.843 0.003,9.618 0.003,9.618 C0.003,9.618 215.543,9.618 215.543,9.618 C215.543,9.618 215.543,19.843 215.543,19.843 Z" id="path-4" class="cls-6" fill-rule="evenodd"/>
  </g>
</svg>
